svg/mail-attachment.svg

<?xml version="1.0" encoding="UTF-8" standalone="no"?>
<!-- Created with Inkscape (http://www.inkscape.org/) -->

<svg
   xmlns:dc="http://purl.org/dc/elements/1.1/"
   xmlns:cc="http://creativecommons.org/ns#"
   xmlns:rdf="http://www.w3.org/1999/02/22-rdf-syntax-ns#"
   xmlns:svg="http://www.w3.org/2000/svg"
   xmlns="http://www.w3.org/2000/svg"
   xmlns:xlink="http://www.w3.org/1999/xlink"
   xmlns:sodipodi="http://sodipodi.sourceforge.net/DTD/sodipodi-0.dtd"
   xmlns:inkscape="http://www.inkscape.org/namespaces/inkscape"
   width="22"
   height="22"
   id="svg79606"
   sodipodi:version="0.32"
   inkscape:version="0.92.2 (5c3e80d, 2017-08-06)"
   version="1.0"
   sodipodi:docname="mail-attachment.svg"
   inkscape:output_extension="org.inkscape.output.svg.inkscape">
  <defs
     id="defs79608">
    <inkscape:perspective
       sodipodi:type="inkscape:persp3d"
       inkscape:vp_x="0 : 24 : 1"
       inkscape:vp_y="0 : 1000 : 0"
       inkscape:vp_z="48 : 24 : 1"
       inkscape:persp3d-origin="24 : 16 : 1"
       id="perspective20" />
    <linearGradient
       id="linearGradient5783">
      <stop
         style="stop-color:#d3d7cf;stop-opacity:1;"
         offset="0"
         id="stop5785" />
      <stop
         id="stop5791"
         offset="0.5"
         style="stop-color:#f5f5f5;stop-opacity:1;" />
      <stop
         style="stop-color:#bebebe;stop-opacity:1;"
         offset="1"
         id="stop5787" />
    </linearGradient>
    <linearGradient
       inkscape:collect="always"
       id="linearGradient3558">
      <stop
         style="stop-color:#000000;stop-opacity:1;"
         offset="0"
         id="stop3560" />
      <stop
         style="stop-color:#000000;stop-opacity:0;"
         offset="1"
         id="stop3562" />
    </linearGradient>
    <radialGradient
       inkscape:collect="always"
       xlink:href="#linearGradient3558"
       id="radialGradient3564"
       cx="21.761711"
       cy="23.07144"
       fx="21.761711"
       fy="23.07144"
       r="15.571428"
       gradientTransform="matrix(0.65900043,0,0,0.08223411,-4.756057,43.570738)"
       gradientUnits="userSpaceOnUse" />
    <linearGradient
       inkscape:collect="always"
       xlink:href="#linearGradient5783"
       id="linearGradient5789"
       x1="23.505953"
       y1="5.7753429"
       x2="20.604948"
       y2="29.85923"
       gradientUnits="userSpaceOnUse" />
  </defs>
  <sodipodi:namedview
     id="base"
     pagecolor="#ffffff"
     bordercolor="#666666"
     borderopacity="0.23529412"
     inkscape:pageopacity="0.0"
     inkscape:pageshadow="2"
     inkscape:zoom="0.5"
     inkscape:cx="-3.7565211"
     inkscape:cy="24"
     inkscape:current-layer="layer1"
     showgrid="false"
     inkscape:grid-bbox="true"
     inkscape:document-units="px"
     inkscape:window-width="1920"
     inkscape:window-height="1017"
     inkscape:window-x="-8"
     inkscape:window-y="-8"
     stroke="#d3d7cf"
     inkscape:showpageshadow="false"
     inkscape:window-maximized="1">
    <inkscape:grid
       id="GridFromPre046Settings"
       type="xygrid"
       originx="0"
       originy="0"
       spacingx="1"
       spacingy="1"
       color="#0000ff"
       empcolor="#0000ff"
       opacity="0.2"
       empopacity="0.4"
       empspacing="4" />
  </sodipodi:namedview>
  <metadata
     id="metadata79611">
    <rdf:RDF>
      <cc:Work
         rdf:about="">
        <dc:format>image/svg+xml</dc:format>
        <dc:type
           rdf:resource="http://purl.org/dc/dcmitype/StillImage" />
        <dc:title>Mail Attachment</dc:title>
        <dc:date>2005-11-04</dc:date>
        <dc:creator>
          <cc:Agent>
            <dc:title>Andreas Nilsson</dc:title>
          </cc:Agent>
        </dc:creator>
        <dc:source>http://tango-project.org</dc:source>
        <dc:subject>
          <rdf:Bag>
            <rdf:li>attachment</rdf:li>
            <rdf:li>file</rdf:li>
          </rdf:Bag>
        </dc:subject>
        <cc:license
           rdf:resource="http://creativecommons.org/publicdomain/zero/1.0/" />
        <dc:contributor>
          <cc:Agent>
            <dc:title>Garrett LeSage</dc:title>
          </cc:Agent>
        </dc:contributor>
      </cc:Work>
      <cc:License
         rdf:about="http://creativecommons.org/publicdomain/zero/1.0/">
        <cc:permits
           rdf:resource="http://creativecommons.org/ns#Reproduction" />
        <cc:permits
           rdf:resource="http://creativecommons.org/ns#Distribution" />
        <cc:permits
           rdf:resource="http://creativecommons.org/ns#DerivativeWorks" />
      </cc:License>
    </rdf:RDF>
  </metadata>
  <g
     id="layer1"
     inkscape:label="Layer 1"
     inkscape:groupmode="layer"
     transform="translate(0,-26)">
    <g
       id="g3902"
       transform="matrix(0.51220087,0,0,0.51220087,-3.085524,24.211662)">
      <path
         inkscape:r_cy="true"
         inkscape:r_cx="true"
         transform="translate(0.494048,1.056164)"
         d="M 21.326337,9.3278633 10.449186,27.94227 c -1.9224999,3.29138 -0.7716107,7.538902 2.558905,9.43994 l 2.094306,1.196865 c 3.33168,1.901036 7.629857,0.762663 9.553522,-2.528715 L 36.41168,15.928621 c 1.923666,-3.292504 1.213364,-7.2880556 -1.576324,-8.8808766 -2.789921,-1.5928211 -6.64751,-0.2024772 -8.57001,3.0900276 l -8.155765,13.961932 c -1.923432,3.291377 -2.130672,6.771738 -0.462034,7.736879 1.669804,0.962892 4.609851,-0.942645 6.532351,-4.234025 l 3.96249,-6.782988"
         id="path7057"
         style="fill:none;stroke:#888a85;stroke-width:3.00000024;stroke-linecap:round;stroke-linejoin:round;stroke-miterlimit:4;stroke-dasharray:none"
         inkscape:connector-curvature="0" />
      <path
         inkscape:r_cy="true"
         inkscape:r_cx="true"
         transform="translate(0.494048,1.168493)"
         d="M 21.326337,9.2155349 10.449186,27.829941 c -1.9224999,3.29138 -0.7716107,7.538902 2.558905,9.43994 l 2.094306,1.196865 c 3.33168,1.901036 7.629857,0.762663 9.553522,-2.528715 L 36.41168,15.816292 c 1.923666,-3.292504 1.213364,-7.288055 -1.576324,-8.880876 -2.789921,-1.5928211 -6.64751,-0.2024772 -8.57001,3.090028 l -8.155765,13.961931 c -1.923432,3.291377 -2.130672,6.771738 -0.462034,7.736879 1.669804,0.962892 4.609851,-0.942645 6.532351,-4.234025 l 3.96249,-6.782988"
         id="path7053"
         style="fill:none;stroke:url(#linearGradient5789);stroke-width:1;stroke-linecap:round;stroke-linejoin:round;stroke-miterlimit:4;stroke-dasharray:none"
         inkscape:connector-curvature="0" />
    </g>
    <ellipse
       style="color:#000000;display:inline;overflow:visible;visibility:visible;opacity:0.25;fill:url(#radialGradient3564);fill-opacity:1;fill-rule:nonzero;stroke:none;stroke-width:0.29177159;stroke-linecap:round;stroke-linejoin:round;stroke-miterlimit:4;stroke-dasharray:none;stroke-dashoffset:0;stroke-opacity:1;marker:none;marker-start:none;marker-mid:none;marker-end:none"
       id="path3556"
       inkscape:r_cx="true"
       inkscape:r_cy="true"
       cx="11"
       cy="45.467999"
       rx="10.500119"
       ry="1.2805029" />
  </g>
</svg>

<?xml version="1.0" encoding="UTF-8" standalone="no"?>
<!-- Created with Inkscape (http://www.inkscape.org/) -->
<svg
   xmlns:dc="http://purl.org/dc/elements/1.1/"
   xmlns:cc="http://creativecommons.org/ns#"
   xmlns:rdf="http://www.w3.org/1999/02/22-rdf-syntax-ns#"
   xmlns:svg="http://www.w3.org/2000/svg"
   xmlns="http://www.w3.org/2000/svg"
   xmlns:xlink="http://www.w3.org/1999/xlink"
   xmlns:sodipodi="http://sodipodi.sourceforge.net/DTD/sodipodi-0.dtd"
   xmlns:inkscape="http://www.inkscape.org/namespaces/inkscape"
   width="48"
   height="48"
   id="svg79606"
   sodipodi:version="0.32"
   inkscape:version="0.46"
   version="1.0"
   sodipodi:docbase="/home/garrett/Source/tango-icon-theme/scalable/status"
   sodipodi:docname="mail-attachment.svg"
   inkscape:output_extension="org.inkscape.output.svg.inkscape">
  <defs
     id="defs79608">
    <inkscape:perspective
       sodipodi:type="inkscape:persp3d"
       inkscape:vp_x="0 : 24 : 1"
       inkscape:vp_y="0 : 1000 : 0"
       inkscape:vp_z="48 : 24 : 1"
       inkscape:persp3d-origin="24 : 16 : 1"
       id="perspective20" />
    <linearGradient
       id="linearGradient5783">
      <stop
         style="stop-color:#d3d7cf;stop-opacity:1;"
         offset="0"
         id="stop5785" />
      <stop
         id="stop5791"
         offset="0.5"
         style="stop-color:#f5f5f5;stop-opacity:1;" />
      <stop
         style="stop-color:#bebebe;stop-opacity:1;"
         offset="1"
         id="stop5787" />
    </linearGradient>
    <linearGradient
       inkscape:collect="always"
       id="linearGradient3558">
      <stop
         style="stop-color:#000000;stop-opacity:1;"
         offset="0"
         id="stop3560" />
      <stop
         style="stop-color:#000000;stop-opacity:0;"
         offset="1"
         id="stop3562" />
    </linearGradient>
    <radialGradient
       inkscape:collect="always"
       xlink:href="#linearGradient3558"
       id="radialGradient3564"
       cx="21.761711"
       cy="23.07144"
       fx="21.761711"
       fy="23.07144"
       r="15.571428"
       gradientTransform="matrix(0.977282,3.554943e-8,-8.305337e-10,0.651376,-0.79443,15.82896)"
       gradientUnits="userSpaceOnUse" />
    <linearGradient
       inkscape:collect="always"
       xlink:href="#linearGradient5783"
       id="linearGradient5789"
       x1="23.505953"
       y1="5.7753429"
       x2="20.604948"
       y2="29.85923"
       gradientUnits="userSpaceOnUse" />
  </defs>
  <sodipodi:namedview
     id="base"
     pagecolor="#ffffff"
     bordercolor="#666666"
     borderopacity="0.23529412"
     inkscape:pageopacity="0.0"
     inkscape:pageshadow="2"
     inkscape:zoom="11.979167"
     inkscape:cx="10.476522"
     inkscape:cy="24"
     inkscape:current-layer="layer1"
     showgrid="true"
     inkscape:grid-bbox="true"
     inkscape:document-units="px"
     inkscape:window-width="940"
     inkscape:window-height="818"
     inkscape:window-x="0"
     inkscape:window-y="30"
     stroke="#d3d7cf"
     inkscape:showpageshadow="false">
    <inkscape:grid
       id="GridFromPre046Settings"
       type="xygrid"
       originx="0px"
       originy="0px"
       spacingx="1px"
       spacingy="1px"
       color="#0000ff"
       empcolor="#0000ff"
       opacity="0.2"
       empopacity="0.4"
       empspacing="4" />
  </sodipodi:namedview>
  <metadata
     id="metadata79611">
    <rdf:RDF>
      <cc:Work
         rdf:about="">
        <dc:format>image/svg+xml</dc:format>
        <dc:type
           rdf:resource="http://purl.org/dc/dcmitype/StillImage" />
        <dc:title>Mail Attachment</dc:title>
        <dc:date>2005-11-04</dc:date>
        <dc:creator>
          <cc:Agent>
            <dc:title>Andreas Nilsson</dc:title>
          </cc:Agent>
        </dc:creator>
        <dc:source>http://tango-project.org</dc:source>
        <dc:subject>
          <rdf:Bag>
            <rdf:li>attachment</rdf:li>
            <rdf:li>file</rdf:li>
          </rdf:Bag>
        </dc:subject>
        <cc:license
           rdf:resource="http://creativecommons.org/licenses/publicdomain/" />
        <dc:contributor>
          <cc:Agent>
            <dc:title>Garrett LeSage</dc:title>
          </cc:Agent>
        </dc:contributor>
      </cc:Work>
      <cc:License
         rdf:about="http://creativecommons.org/licenses/publicdomain/">
        <cc:permits
           rdf:resource="http://creativecommons.org/ns#Reproduction" />
        <cc:permits
           rdf:resource="http://creativecommons.org/ns#Distribution" />
        <cc:permits
           rdf:resource="http://creativecommons.org/ns#DerivativeWorks" />
      </cc:License>
    </rdf:RDF>
  </metadata>
  <g
     id="layer1"
     inkscape:label="Layer 1"
     inkscape:groupmode="layer">
    <g
       id="g3902">
      <path
         inkscape:r_cy="true"
         inkscape:r_cx="true"
         transform="translate(0.494048,1.056164)"
         d="M 21.326337,9.3278633 L 10.449186,27.94227 C 8.5266861,31.23365 9.6775753,35.481172 13.008091,37.38221 L 15.102397,38.579075 C 18.434077,40.480111 22.732254,39.341738 24.655919,36.05036 L 36.41168,15.928621 C 38.335346,12.636117 37.625044,8.6405654 34.835356,7.0477444 C 32.045435,5.4549233 28.187846,6.8452672 26.265346,10.137772 L 18.109581,24.099704 C 16.186149,27.391081 15.978909,30.871442 17.647547,31.836583 C 19.317351,32.799475 22.257398,30.893938 24.179898,27.602558 L 28.142388,20.81957"
         id="path7057"
         style="fill:none;stroke:#888a85;stroke-width:3.00000024;stroke-linecap:round;stroke-linejoin:round;stroke-miterlimit:4;stroke-dasharray:none" />
      <path
         inkscape:r_cy="true"
         inkscape:r_cx="true"
         transform="translate(0.494048,1.168493)"
         d="M 21.326337,9.2155349 L 10.449186,27.829941 C 8.5266861,31.121321 9.6775753,35.368843 13.008091,37.269881 L 15.102397,38.466746 C 18.434077,40.367782 22.732254,39.229409 24.655919,35.938031 L 36.41168,15.816292 C 38.335346,12.523788 37.625044,8.528237 34.835356,6.935416 C 32.045435,5.3425949 28.187846,6.7329388 26.265346,10.025444 L 18.109581,23.987375 C 16.186149,27.278752 15.978909,30.759113 17.647547,31.724254 C 19.317351,32.687146 22.257398,30.781609 24.179898,27.490229 L 28.142388,20.707241"
         id="path7053"
         style="fill:none;stroke:url(#linearGradient5789);stroke-width:1;stroke-linecap:round;stroke-linejoin:round;stroke-miterlimit:4;stroke-dasharray:none" />
    </g>
    <path
       sodipodi:type="arc"
       style="opacity:0.25;color:#000000;fill:url(#radialGradient3564);fill-opacity:1;fill-rule:nonzero;stroke:none;stroke-width:1;stroke-linecap:round;stroke-linejoin:round;marker:none;marker-start:none;marker-mid:none;marker-end:none;stroke-miterlimit:4;stroke-dasharray:none;stroke-dashoffset:0;stroke-opacity:1;visibility:visible;display:inline;overflow:visible"
       id="path3556"
       sodipodi:cx="22.571428"
       sodipodi:cy="30.857143"
       sodipodi:rx="15.571428"
       sodipodi:ry="10.142858"
       d="M 38.142857 30.857143 A 15.571428 10.142858 0 1 1  7,30.857143 A 15.571428 10.142858 0 1 1  38.142857 30.857143 z"
       transform="matrix(1.316514,0,0,0.246479,-2.215601,33.89436)"
       inkscape:r_cx="true"
       inkscape:r_cy="true" />
  </g>
</svg>
